X:1
T:It Must Be Settled Tonight
T:It Must Be Settled Tonight
T:John Jackson Hood
T:C. B. Kendall, 1881
T:Public Domain Courtesy of the Cyber Hymnal™
C:John Jackson Hood
Z:Public Domain
Z:Courtesy of the Cyber Hymnal™
%%score ( 1 2 ) ( 3 4 )
L:1/8
Q:1/4=115
M:6/8
K:G
V:1 treble 
V:2 treble 
V:3 bass 
V:4 bass 
V:1
 D | [DG]2 [DF] ([DA][DA])[DG] | [GB]3- [GB]2 [Gd] | ([Fd][Fd])[DF] [^CG]2 [CE] | D3- D2 D | %5
w: 1.~“It|must be settled * to-|night, * To-|morrow * may be too|late”; * The|
w: 2.~A|bur- den weighs * my|soul * I|can * no long- er|bear; * Un-|
w: 3.~I|can- not rest * till|peace * En-|folds * me from a-|bove, * Till|
w: 4.~Oh,|now I know * ’tis|done! * My|peace * is made with|God; * My|
 ([DF][DF])[DF] [DG]2 [DG] | ([Fc]2 [Fc] !fermata![Fc]2) [Dc] | [DB]2 [GB] ([EA]E)[DF] | %8
w: angel * of death may|come, * * And|seal for- ever * my|
w: less * re- moved this|night, * * ’Twill|sink me into * de-|
w: my * Re- deem- er|speaks~to~me * * As-|sur- ance of * His|
w: par- * don’s found in|Jesus’~name, * * Thro’|faith in Je- * sus’|
 [DG]3- [DG]2 ||"^Refrain" [DG] | [EG]2 [EG] ([Ec][Ec])[Ec] | [DB]3- [DB]2 [GB] | %12
w: fate. *||||
w: spair. *|It|must be settled * to-|night, * I|
w: love. *|4.~Oh,|now I know * ’tis|done! * Sweet|
w: blood. *||||
 [Gd]2 G [Fc]2 [GB] | [FA]3- [FA]2 z | [GB][GB][GB] [=FB]2 [FB] | [Ec]2 [Ec] !fermata![Ec]2 [G^c] | %16
w: ||||
w: can no long- er|wait, *|Peace with my God I|now must have, To-|
w: joy per- vades my|soul; *|Peace with my God I|now have found; His|
w: ||||
 ([Gd][Gd])D [^CE]2 [=CF] | [B,G]3- [B,G]2 |] %18
w: ||
w: morrow * may be too|late. *|
w: blood * hath made me|whole. *|
w: ||
V:2
 D | x6 | x6 | x6 | D3- D2 D | x6 | x6 | x4 E x | x5 || x | x6 | x6 | x2 G x3 | x6 | x6 | x6 | %16
 x2 D x3 | x5 |] %18
V:3
 [G,B,] | [G,B,]2 [G,A,] ([G,C][G,C])[G,B,] | [G,D]3- [G,D]2 [G,B,] | %3
 ([D,A,][D,A,])[D,A,] [A,,A,]2 [A,,G,] | [D,F,]3- [D,F,]2 [D,F,] | %5
 ([D,A,][D,A,])[D,A,] [D,B,]2 [D,B,] | ([D,A,]2 [D,A,] [D,A,]2) [F,A,] | %7
 G,2 [G,D] ([C,C][C,C])[D,C] | [G,B,]3- [G,B,]2 || [G,B,] | [C,C]2 [C,C] [C,G,][C,G,][C,G,] | %11
 [G,,G,]2 [G,,G,] [G,,G,]2 [G,D] | [B,D]2 [B,D] [A,D]2 [G,D] | [D,D]3- [D,D]2 z | %14
 [G,D][G,D][G,D] [G,D]2 [G,D] | [C,C]2 [C,C] !fermata![C,C]2 [_E,^A,] | %16
 ([D,B,][D,B,])[D,F,] [D,G,]2 [D,A,] | [G,,G,]3- [G,,G,]2 |] %18
V:4
 x | x6 | x6 | x6 | x6 | x6 | x6 | G,2 x4 | x5 || x | x6 | x6 | x6 | x6 | x6 | x6 | x6 | x5 |] %18

